X:17
T:Filkar's T:iper's Favourite
Z: id:dc-jig-15
M:6/8
L:1/8
K:D Major
d|efg edB|ca bag agef|gede geag|age dBA|BGG d2e|dBA A2G|!
BAB dBG|EAA DBd|cBA bajor
D|G3 GAG|FDE =F3|G3 GFG|Add cAF|!
G3 GAG|FDE =F2dc|Bgg BAB|cBA A2:|!
d|efg a2b|a2b age|efg a2b|agf g2d|!
efg a2b|a2b agf|gfg dcB|cAA A2:|!